<?xml version="1.0" encoding="UTF-8"?>
<map version="1.10" tiledversion="1.11.2" orientation="orthogonal" renderorder="right-down" width="80" height="40" tilewidth="16" tileheight="16" infinite="0" nextlayerid="4" nextobjectid="1">
 <tileset firstgid="1" source="../dungeon-novo.tsx"/>
 <tileset firstgid="325" source="../dungeon-2.tsx"/>
 <tileset firstgid="469" source="../dungeon-completo.tsx"/>
 <tileset firstgid="820" source="../viradinhos.tsx"/>
 <layer id="1" name="Camada de Blocos 1" width="80" height="40">
  <data encoding="csv">
0,0,0,0,0,0,0,0,0,0,0,0,0,0,0,0,0,0,0,0,0,0,0,0,0,0,0,0,0,0,0,0,0,0,0,0,0,0,0,0,0,0,0,0,0,0,0,0,0,0,0,0,0,0,0,0,0,0,0,0,0,0,0,0,0,0,0,0,0,0,0,0,0,0,0,0,0,0,0,0,
0,0,0,0,0,0,0,0,0,0,0,0,0,0,0,0,0,0,0,0,0,0,0,0,0,0,0,0,0,0,0,0,0,0,0,0,0,0,0,0,0,0,0,0,0,0,0,0,0,0,0,0,0,0,0,0,0,0,0,0,0,0,0,0,0,0,0,0,0,0,0,0,0,0,0,0,0,0,0,0,
0,0,0,0,0,0,0,0,0,0,0,0,0,0,0,0,0,0,0,0,0,0,0,0,0,0,0,0,0,0,0,0,0,0,0,0,0,0,0,0,0,0,0,0,0,0,0,0,0,0,0,0,0,0,0,0,0,0,0,395,326,0,0,326,395,0,0,0,0,0,0,0,0,0,0,0,0,0,0,0,
0,0,0,0,0,0,0,0,0,0,0,0,0,0,0,0,0,0,0,0,0,0,0,0,0,0,0,0,0,0,0,0,0,0,0,0,0,0,0,0,0,0,0,0,0,0,0,0,0,0,0,0,0,0,0,0,0,0,0,0,326,0,0,326,0,0,0,0,0,0,0,0,0,0,0,0,0,0,0,0,
0,0,0,0,0,0,0,0,0,0,0,0,0,0,0,0,0,0,0,0,0,0,0,0,0,0,0,0,0,0,0,0,0,0,0,0,0,0,0,0,0,0,0,0,0,0,0,0,0,0,0,0,0,0,0,0,0,0,0,0,338,0,0,338,0,0,0,0,0,0,0,0,0,0,0,0,0,0,0,0,
0,0,0,0,0,0,0,0,0,0,0,0,0,0,0,0,0,0,0,0,0,0,0,0,0,0,0,0,0,0,0,0,0,0,0,0,0,0,0,0,0,0,0,0,0,0,0,0,0,0,0,0,0,0,0,0,0,0,578,578,578,578,578,578,578,578,0,0,0,0,0,0,0,0,0,0,0,0,0,0,
0,0,0,0,0,0,0,0,0,0,0,0,0,0,0,0,0,0,0,0,0,0,0,0,0,0,0,0,0,0,0,0,0,0,0,0,0,0,0,0,0,0,0,0,0,0,0,0,0,0,0,0,0,0,0,0,0,578,578,578,578,578,578,578,578,578,578,0,0,0,0,0,0,0,0,0,0,0,0,0,
0,0,0,0,0,0,0,0,0,0,0,0,0,0,0,0,0,0,0,0,0,0,0,0,0,0,0,0,0,0,0,0,0,0,0,0,0,0,0,0,0,0,0,0,0,0,0,0,0,0,0,0,0,0,0,0,578,578,578,578,578,578,578,578,578,578,578,578,0,0,0,0,0,0,0,0,0,0,0,0,
0,0,0,0,0,0,0,0,0,0,0,0,0,0,0,0,0,0,0,0,0,0,0,0,0,0,0,0,0,0,0,0,0,0,0,0,0,0,0,0,0,0,0,0,0,0,0,0,0,0,0,0,0,0,0,578,578,578,578,578,578,578,578,578,578,578,578,578,578,0,0,0,0,0,0,0,0,0,0,0,
0,0,0,0,0,0,0,0,0,0,0,0,0,0,0,0,0,0,0,0,0,0,0,0,0,0,0,0,0,0,0,0,0,0,0,0,0,0,0,0,0,0,0,0,0,0,0,0,0,0,0,0,0,0,578,578,578,578,578,578,578,578,578,578,578,578,578,578,578,578,0,0,0,0,0,0,0,0,0,0,
0,0,0,0,0,0,0,0,0,0,0,0,0,0,0,0,0,0,0,0,0,0,0,0,0,0,0,0,0,0,0,57,327,328,328,328,328,328,328,328,328,328,328,328,328,3221225799,57,0,0,0,0,0,0,0,578,578,578,578,578,578,578,578,578,578,578,578,578,578,578,578,0,0,0,0,0,0,0,0,0,0,
0,0,0,0,0,0,0,0,0,0,0,0,0,0,0,0,0,0,0,0,0,0,0,0,0,0,0,0,0,0,75,327,328,2147483723,75,75,75,75,75,75,75,75,75,75,75,328,3221225799,75,0,0,0,0,0,0,578,578,578,578,578,578,578,578,578,578,578,578,578,578,578,578,0,0,0,0,0,0,0,0,0,0,
0,0,0,0,0,0,0,0,0,0,0,0,0,0,0,0,0,0,0,0,0,0,0,0,0,0,0,0,0,0,327,328,2147483723,75,75,75,75,75,75,75,75,75,75,75,75,75,328,3221225799,75,0,0,0,0,0,578,578,578,578,578,578,578,578,578,578,578,578,578,578,578,578,0,0,0,0,0,0,0,0,0,0,
0,0,0,0,0,0,0,0,0,0,0,0,0,0,0,0,0,0,0,0,0,0,0,0,0,0,0,0,0,75,328,75,75,75,75,165,165,165,165,165,165,165,165,75,75,75,75,328,75,0,0,0,0,0,578,578,578,578,578,578,578,578,578,578,578,578,578,578,578,578,0,0,0,0,0,0,0,0,0,0,
0,0,0,0,0,0,0,0,0,0,0,0,0,0,0,0,0,0,0,0,0,0,0,0,0,0,0,0,75,327,328,75,75,75,183,183,183,183,183,183,183,183,183,183,75,75,75,328,3221225799,75,0,0,0,0,578,578,578,578,578,578,578,578,578,578,578,578,578,578,578,578,0,0,0,0,0,0,0,0,0,0,
0,0,0,0,0,0,0,0,0,0,0,0,0,0,0,0,0,0,0,0,0,0,0,0,0,0,0,75,327,328,75,75,75,189,183,183,183,183,183,183,183,183,183,183,209,75,75,75,328,3221225799,75,0,0,0,578,578,483,578,578,483,578,578,578,578,483,578,578,578,578,483,0,0,0,0,0,0,0,0,0,0,
0,0,0,0,0,0,0,0,0,0,0,512,0,0,512,0,597,0,0,0,512,0,0,0,0,0,74,327,328,75,75,75,189,183,183,183,183,183,183,183,183,183,719,183,208,191,75,75,75,328,3221225799,94,0,0,578,578,578,578,483,578,578,578,578,483,578,578,578,578,483,483,0,0,0,0,0,0,0,0,0,0,
0,0,0,0,0,0,0,0,0,0,588,588,0,0,0,0,0,0,0,0,0,0,0,0,0,0,327,328,75,75,75,189,183,183,183,183,183,183,183,183,183,183,183,183,208,208,191,75,75,75,328,3221225799,0,0,578,578,578,483,483,578,578,578,578,578,483,578,578,483,483,483,0,0,0,0,0,0,0,0,0,0,
0,0,0,0,0,0,0,0,0,560,561,561,57,57,57,57,57,57,57,57,57,57,57,57,57,58,328,75,75,75,189,183,183,183,183,183,183,183,183,183,183,183,183,183,183,208,208,191,75,75,75,328,0,0,483,483,483,483,483,483,483,483,483,483,483,483,483,483,483,483,0,0,0,0,0,0,0,0,0,0,
0,0,0,0,0,0,0,560,561,588,588,588,75,75,75,75,75,75,75,75,75,75,75,75,75,76,328,75,75,75,208,605,183,183,183,183,183,605,183,183,183,183,183,183,183,183,208,208,75,75,75,328,483,483,483,483,483,483,483,483,483,483,483,483,483,483,483,483,483,483,0,0,0,0,0,0,0,0,0,0,
0,0,0,0,0,0,560,588,588,588,588,588,75,75,75,75,75,75,75,75,75,75,75,75,75,76,328,75,75,189,183,183,183,183,183,183,183,183,183,183,183,183,183,183,665,183,183,208,191,75,75,328,483,483,0,0,0,0,0,0,0,0,0,0,0,483,483,483,483,483,0,0,0,0,0,0,0,0,0,0,
0,0,0,0,0,0,587,588,588,588,588,588,75,75,75,75,75,75,75,75,75,75,75,75,75,75,328,75,75,207,183,183,183,183,183,183,183,183,183,183,183,183,183,183,183,183,183,665,209,75,75,328,483,483,0,0,0,0,0,0,0,0,0,0,0,483,483,483,483,483,0,0,0,0,0,0,0,0,0,0,
0,0,0,0,0,560,588,588,588,588,588,588,75,75,75,75,75,75,75,75,75,75,75,75,75,75,328,75,75,207,183,183,183,183,183,183,183,183,183,183,183,183,183,183,183,183,208,208,209,75,75,328,483,483,0,0,0,0,0,0,0,0,0,0,0,483,483,483,483,483,0,0,0,0,0,0,0,0,0,0,
0,0,0,0,560,588,588,588,588,588,588,588,75,75,75,75,75,75,75,75,75,75,75,75,75,588,328,75,75,225,208,183,183,183,183,183,183,183,183,183,183,183,604,183,183,183,208,208,227,75,75,328,483,483,483,483,483,483,483,483,483,483,483,483,483,483,483,483,483,483,0,0,0,0,0,0,0,0,0,0,
0,0,0,0,587,588,588,588,588,588,588,588,75,75,75,75,75,75,75,75,75,75,75,75,75,588,328,75,75,75,207,208,183,183,183,183,183,183,183,183,183,183,183,183,183,183,183,209,75,75,75,328,483,483,483,483,483,483,483,483,483,483,483,483,483,483,483,483,483,483,0,0,0,0,0,0,0,0,0,0,
0,0,0,0,587,588,588,588,588,588,588,588,75,75,75,75,75,75,75,75,75,75,75,75,75,588,328,75,75,75,225,208,183,183,183,183,183,665,183,183,183,183,633,183,183,183,208,209,75,75,75,328,0,483,483,483,483,483,483,565,565,565,565,565,483,483,483,483,483,483,0,0,0,0,0,0,0,0,0,0,
0,0,0,0,587,588,588,588,588,588,588,588,75,75,75,75,75,75,75,75,75,75,75,75,75,76,327,328,75,75,75,207,208,183,183,183,604,183,183,183,633,183,183,183,605,183,209,75,75,75,328,327,0,483,483,483,483,483,565,483,483,499,483,483,565,483,483,483,483,483,0,0,0,0,0,0,0,0,0,0,
0,0,0,0,587,588,588,588,588,588,588,588,75,75,75,75,75,75,75,75,75,75,75,75,75,76,327,328,75,75,75,225,208,208,183,183,183,183,183,183,183,183,183,183,183,208,209,75,75,75,328,327,0,483,483,483,483,565,578,565,499,498,499,565,578,565,483,483,483,483,0,0,0,0,0,0,0,0,0,0,
0,0,0,0,587,588,588,588,588,588,588,588,75,75,75,75,75,75,75,75,75,75,75,75,75,76,940,327,328,75,75,75,225,208,183,183,183,183,183,183,183,183,183,183,183,227,75,75,75,328,327,941,0,483,483,483,565,483,565,499,498,578,498,499,565,483,565,483,483,483,0,0,0,0,0,0,0,0,0,0,
0,0,0,0,587,588,588,588,588,588,588,588,75,75,75,75,75,75,75,75,75,75,75,75,75,76,0,940,327,328,75,75,75,225,208,183,183,183,183,183,183,208,183,183,227,75,75,75,328,327,941,0,0,483,483,483,565,483,499,498,565,483,565,498,499,483,565,483,483,483,0,0,0,0,0,0,0,0,0,0,
0,0,0,0,587,588,588,588,588,588,588,588,75,75,75,75,75,75,75,75,75,75,75,75,75,76,0,0,940,327,328,75,75,75,225,226,226,226,226,226,226,226,226,227,75,75,75,328,327,941,0,0,0,483,483,483,565,499,498,578,483,565,483,578,498,499,565,483,483,483,0,0,0,0,0,0,0,0,0,0,
0,0,0,0,587,588,588,588,588,588,588,588,75,75,75,75,75,75,75,75,75,75,75,75,75,76,0,0,0,940,327,328,75,75,75,75,75,75,75,75,75,75,75,75,75,75,328,327,941,0,0,0,0,483,483,483,565,483,499,498,565,483,565,498,499,483,565,483,483,483,0,0,0,0,0,0,0,0,0,0,
0,0,0,0,587,588,588,588,588,588,588,588,75,75,75,75,75,75,75,75,75,75,75,75,75,76,0,0,0,0,940,327,328,75,75,75,75,75,75,75,75,75,75,75,75,328,327,941,0,0,0,0,0,483,483,483,565,483,565,499,498,578,498,499,565,483,565,483,483,483,0,0,0,0,0,0,0,0,0,0,
0,0,0,0,587,588,588,588,588,588,588,588,75,75,75,75,75,75,75,75,75,75,75,75,75,76,0,0,0,0,0,940,327,328,328,328,328,328,328,328,328,328,328,328,328,327,941,0,0,0,0,0,0,483,483,483,483,565,578,565,499,498,499,565,578,565,483,483,483,483,0,0,0,0,0,0,0,0,0,0,
0,0,0,0,587,588,588,588,588,588,588,588,75,75,75,75,75,75,75,75,75,75,75,75,75,76,0,0,0,0,0,0,940,580,580,580,580,580,580,580,580,580,580,580,580,941,0,0,0,0,0,0,0,483,483,483,483,483,565,483,483,499,483,483,565,483,483,483,483,483,0,0,0,0,0,0,0,0,0,0,
0,0,0,0,587,588,588,588,588,588,588,588,75,75,75,75,75,75,75,75,75,75,75,75,75,76,0,0,0,0,0,0,0,943,943,943,943,943,943,943,943,943,943,943,943,0,0,0,0,0,0,0,0,483,483,483,483,483,483,565,565,565,565,565,483,483,483,483,483,483,0,0,0,0,0,0,0,0,0,0,
0,0,0,0,587,588,588,588,588,588,588,588,75,75,75,75,75,75,75,75,75,75,75,75,75,76,0,0,0,0,0,0,0,0,0,0,0,0,0,0,0,0,0,0,0,0,0,0,0,0,0,0,0,483,483,483,483,483,483,483,483,483,483,483,483,483,483,483,483,483,0,0,0,0,0,0,0,0,0,0,
0,0,0,0,587,588,588,588,588,588,588,588,75,75,75,75,75,75,75,75,75,75,75,75,75,76,0,0,0,0,0,0,0,0,0,0,0,0,0,0,0,0,0,0,0,0,0,0,0,0,0,0,0,483,483,483,483,483,483,483,483,483,483,483,483,483,483,483,483,483,0,0,0,0,0,0,0,0,0,0,
0,0,0,0,0,0,0,0,0,0,0,92,93,93,93,93,93,93,93,93,93,93,93,93,93,94,0,0,0,0,0,0,0,0,0,0,0,0,0,0,0,0,0,0,0,0,0,0,0,0,0,0,0,0,0,0,0,0,0,0,0,0,0,0,0,0,0,0,0,0,0,0,0,0,0,0,0,0,0,0,
0,0,0,0,0,0,0,0,0,0,0,0,0,0,0,0,0,0,0,0,0,0,0,0,0,0,0,0,0,0,0,0,0,0,0,0,0,0,0,0,0,0,0,0,0,0,0,0,0,0,0,0,0,0,0,0,0,0,0,0,0,0,0,0,0,0,0,0,0,0,0,0,0,0,0,0,0,0,0,0
</data>
 </layer>
 <layer id="2" name="Camada de Blocos 2" width="80" height="40">
  <data encoding="csv">
0,0,0,0,0,0,0,0,0,0,0,0,0,0,0,0,0,0,0,0,0,0,0,0,0,0,0,0,0,0,0,0,0,0,0,0,0,0,0,0,0,0,0,0,0,0,0,0,0,0,0,0,0,0,0,0,0,0,0,0,0,0,0,0,0,0,0,0,0,0,0,0,0,0,0,0,0,0,0,0,
0,0,0,0,0,0,0,0,0,0,0,0,0,0,0,0,0,0,0,0,0,0,0,0,0,0,0,0,0,0,0,0,0,0,0,0,0,0,0,0,0,0,0,0,0,0,0,0,0,0,0,0,0,0,0,0,0,0,0,0,0,0,0,0,0,0,0,0,0,0,0,0,0,0,0,0,0,0,0,0,
0,0,0,0,0,0,0,0,0,0,0,0,0,0,0,0,0,0,0,0,0,0,0,0,0,0,0,0,0,0,0,0,0,0,0,0,0,0,0,0,0,0,0,0,0,0,0,0,0,0,0,0,0,0,0,0,0,0,473,0,603,628,628,603,0,474,0,0,0,0,0,0,0,0,0,0,0,0,0,0,
0,0,0,0,0,0,0,0,0,0,0,0,0,0,0,0,0,0,0,0,0,0,0,0,0,0,0,0,0,0,0,0,0,0,0,0,0,0,0,0,0,0,0,0,0,0,0,0,0,0,0,0,0,0,0,0,0,0,500,2684355056,629,0,0,629,2684355056,501,0,0,0,0,0,0,0,0,0,0,0,0,0,0,
0,0,0,0,0,0,0,0,0,0,0,0,0,0,0,0,0,0,0,0,0,0,0,0,0,0,0,0,0,0,0,0,0,0,0,0,0,0,0,0,0,0,0,0,0,0,0,0,0,0,0,0,0,0,0,0,0,500,338,338,630,593,594,630,338,338,501,0,0,0,0,0,0,0,0,0,0,0,0,0,
0,0,0,0,0,0,0,0,0,0,0,0,0,0,0,0,0,0,0,0,0,0,0,0,0,0,0,0,0,0,0,0,0,0,0,0,0,0,0,0,0,0,0,0,0,0,0,0,0,0,0,0,0,0,0,0,500,338,0,0,0,620,621,0,0,0,338,501,0,0,0,0,0,0,0,0,0,0,0,0,
0,0,0,0,0,0,0,0,0,0,0,0,0,0,0,0,0,0,0,0,0,0,0,0,0,0,0,0,0,0,0,0,0,0,0,0,0,0,0,0,0,0,0,0,0,0,0,0,0,0,0,0,0,0,0,500,338,0,0,0,0,0,0,0,0,0,0,337,501,0,0,0,0,0,0,0,0,0,0,0,
0,0,0,0,0,0,0,0,0,0,0,0,0,0,0,0,0,0,0,0,0,0,0,0,0,0,0,0,0,0,0,0,0,0,0,0,0,0,0,0,0,0,0,0,0,0,0,0,0,0,0,0,0,0,500,338,0,0,0,0,0,0,0,0,0,0,0,0,338,501,0,0,0,0,0,0,0,0,0,0,
0,0,0,0,0,0,0,0,0,0,0,0,0,0,0,0,0,0,0,0,0,0,0,0,0,0,0,0,0,0,0,0,0,0,0,0,0,0,0,0,0,0,0,0,0,0,0,0,0,0,0,0,0,0,337,0,0,0,0,0,0,0,0,0,0,0,0,0,0,338,0,0,0,0,0,0,0,0,0,0,
0,0,0,0,0,0,0,0,0,0,0,0,0,0,0,0,0,0,0,0,0,0,0,0,0,0,0,0,0,0,0,703,703,703,703,703,703,703,703,703,703,703,703,703,703,703,703,0,0,0,0,0,0,0,370,0,0,0,0,0,0,0,0,0,0,0,0,0,0,371,0,0,0,0,0,0,0,0,0,0,
0,0,0,0,0,0,0,0,0,0,0,0,0,0,0,0,0,0,0,0,0,0,0,0,0,0,0,0,0,0,703,0,0,0,0,0,0,0,0,0,0,0,0,0,0,0,0,703,0,0,0,0,0,0,370,0,0,0,0,0,0,0,0,0,0,0,0,0,0,371,0,0,0,0,0,0,0,0,0,0,
0,0,0,0,0,0,0,0,0,0,0,0,0,0,0,0,0,0,0,0,0,0,0,0,0,0,0,0,0,0,0,0,0,0,0,0,0,0,0,0,0,0,0,0,0,0,0,0,703,0,0,0,0,0,370,0,0,0,0,0,0,0,0,0,0,0,0,0,0,371,0,0,0,0,0,0,0,0,0,0,
0,0,0,0,0,0,0,0,0,0,0,0,0,0,0,0,0,0,0,0,0,0,0,0,0,0,0,0,0,703,0,0,0,0,0,0,0,0,0,0,0,0,0,0,0,0,0,0,0,0,0,0,0,0,370,0,0,0,0,0,0,0,0,0,0,0,0,0,0,371,0,0,0,0,0,0,0,0,0,0,
0,0,0,0,0,0,0,0,0,0,0,0,0,0,0,0,0,0,0,0,0,0,0,0,0,0,0,0,703,0,0,0,0,0,0,75,164,0,0,0,0,0,75,0,0,0,0,0,927,887,0,0,0,0,370,0,0,0,0,0,0,0,0,0,0,0,0,0,0,371,0,0,0,0,0,0,0,0,0,0,
0,0,0,0,0,0,0,0,0,487,485,485,485,485,485,485,485,485,485,485,485,485,485,485,485,488,0,703,0,0,0,0,0,0,164,165,0,0,0,0,0,0,165,166,0,0,0,0,0,927,703,0,0,0,370,0,0,0,0,0,0,0,0,0,0,0,0,0,0,371,0,0,0,0,0,0,0,0,0,0,
0,0,0,0,0,0,0,487,494,512,512,512,512,512,512,512,489,490,491,512,512,512,512,512,512,515,703,0,0,0,0,0,0,164,0,0,0,0,0,0,0,0,0,0,166,0,0,0,0,0,927,703,0,0,370,0,0,0,0,0,0,0,0,0,0,0,0,0,0,371,0,0,0,0,0,0,0,0,0,0,
0,0,0,0,0,0,487,512,512,512,512,707,24,24,707,24,597,0,599,24,707,24,24,24,24,27,649,0,0,0,0,0,164,0,0,167,0,0,0,0,0,0,0,0,0,166,0,0,0,0,0,0,0,0,370,0,0,0,0,0,0,0,0,0,0,0,0,0,0,371,0,0,0,0,0,0,0,0,0,0,
0,0,0,0,0,487,512,512,512,539,539,539,42,42,42,42,28,29,30,42,42,42,42,42,42,99,649,0,0,0,0,164,0,0,0,0,167,0,0,203,0,0,0,0,0,0,166,0,0,0,0,0,0,0,370,0,0,0,0,0,0,0,0,0,0,0,0,0,0,371,0,0,0,0,0,0,0,0,0,0,
0,0,0,0,0,514,512,539,521,678,0,0,0,0,0,0,100,101,102,0,0,0,0,0,0,117,649,0,0,0,164,0,0,0,0,0,0,0,0,0,0,0,0,0,0,0,0,166,0,0,0,0,887,703,678,0,0,0,0,0,0,0,0,0,0,0,0,0,0,650,0,0,0,0,0,0,0,0,0,0,
0,0,0,0,487,512,539,0,0,0,0,0,0,0,0,0,0,0,0,0,0,0,0,0,0,117,649,0,0,0,0,0,0,0,0,0,0,0,204,0,0,0,0,0,0,0,0,184,0,0,0,0,0,0,0,0,0,0,0,0,0,0,0,0,0,0,0,0,0,650,0,0,0,0,0,0,0,0,0,0,
0,0,0,0,512,512,0,0,0,0,0,0,0,0,0,0,644,642,645,0,0,0,0,0,0,927,870,0,0,164,0,0,0,0,0,0,0,0,0,0,185,0,0,0,0,0,0,0,166,0,0,0,0,0,641,642,642,642,642,642,642,642,642,642,642,919,0,0,0,650,0,0,0,0,0,0,0,0,0,0,
0,0,0,0,512,539,0,0,0,0,0,0,0,0,0,0,668,669,672,0,0,0,0,0,0,0,0,0,0,182,0,0,167,0,0,0,0,0,0,0,0,0,0,0,0,0,0,0,184,0,0,0,0,0,668,669,669,669,669,669,669,669,669,669,669,938,0,0,0,650,0,0,0,0,0,0,0,0,0,0,
0,0,0,0,539,0,0,0,0,0,0,0,0,0,0,0,668,669,672,0,0,0,0,0,0,0,0,0,0,182,0,0,0,0,205,0,0,0,0,0,0,0,0,0,0,0,0,0,184,0,0,0,0,0,695,696,696,696,696,696,696,696,696,696,696,957,0,0,0,650,0,0,0,0,0,0,0,0,0,0,
0,0,0,0,0,0,0,0,0,0,0,0,0,0,0,0,668,669,672,0,0,0,0,0,0,0,0,0,0,200,0,0,0,0,0,0,0,0,0,0,0,0,0,0,0,187,0,0,202,0,0,0,0,0,0,0,0,0,0,0,0,0,0,0,0,0,0,0,0,650,0,0,0,0,0,0,0,0,0,0,
0,0,0,0,0,0,0,0,0,0,0,0,0,0,0,0,668,669,672,0,0,0,0,75,0,0,0,0,0,0,182,0,0,0,0,0,0,0,0,0,0,0,0,0,0,0,0,184,0,0,0,908,887,851,0,0,0,0,0,0,0,0,0,0,0,0,0,0,0,650,0,0,0,0,0,0,0,0,0,0,
0,0,0,0,0,0,0,0,0,0,0,0,0,0,75,0,668,669,672,0,0,0,0,75,0,0,0,0,0,0,200,0,0,0,0,0,0,0,0,0,0,0,0,0,0,0,0,202,0,0,0,650,0,649,0,0,0,0,0,0,0,0,0,0,0,0,0,0,0,650,0,0,0,0,0,0,0,0,0,0,
0,0,0,0,0,0,0,0,0,0,0,0,0,0,0,0,668,669,672,0,0,0,0,0,0,908,851,0,0,0,0,182,0,188,0,0,0,0,0,0,0,0,0,0,0,0,184,0,0,0,0,650,0,649,0,0,0,0,0,0,0,0,0,0,0,0,0,0,0,650,0,0,0,0,0,0,0,0,0,0,
0,0,0,0,0,0,0,0,0,0,0,0,0,0,0,0,668,669,672,0,0,0,0,0,0,117,134,851,0,0,0,200,0,0,0,0,0,0,0,0,0,0,0,0,0,0,202,0,0,0,908,677,0,649,0,0,0,0,0,0,0,0,0,0,0,0,0,0,0,650,0,0,0,0,0,0,0,0,0,0,
0,0,0,0,0,0,0,0,0,0,0,0,0,0,0,0,668,669,672,0,0,0,0,0,0,63,0,134,851,0,0,0,200,0,0,0,0,0,0,0,169,0,0,0,0,202,0,0,0,908,677,0,0,649,0,0,0,0,0,0,0,0,0,0,0,0,0,0,0,650,0,0,0,0,0,0,0,0,0,0,
0,0,0,0,0,0,0,0,0,0,0,0,0,0,0,0,668,669,672,0,0,0,0,0,0,63,0,0,134,851,0,0,0,200,0,0,0,0,0,0,0,0,0,0,202,0,0,0,908,677,0,0,0,649,0,0,0,0,0,0,0,0,0,0,0,0,0,0,0,650,0,0,0,0,0,0,0,0,0,0,
0,0,0,0,0,0,0,0,0,0,0,0,0,0,0,0,668,669,672,0,0,0,0,0,0,63,0,0,0,134,851,0,0,0,200,201,201,201,201,201,201,201,201,202,0,0,0,908,677,0,0,0,0,649,0,0,0,0,0,0,0,0,0,0,0,0,0,0,0,650,0,0,0,0,0,0,0,0,0,0,
0,0,0,0,0,0,0,0,0,0,0,0,0,0,0,0,668,669,672,0,0,0,0,0,0,63,0,0,0,0,134,851,0,0,0,0,0,0,0,0,0,0,0,0,0,0,908,677,0,0,0,0,0,649,0,0,0,0,0,0,0,0,0,0,0,0,0,0,0,650,0,0,0,0,0,0,0,0,0,0,
0,0,0,0,0,0,0,0,0,0,0,0,0,0,0,0,671,669,672,0,0,0,0,0,0,63,0,0,0,0,0,134,851,0,0,0,0,0,0,0,0,0,0,0,0,908,677,0,0,0,0,0,0,649,0,0,0,0,0,0,0,0,0,0,0,0,0,0,0,650,0,0,0,0,0,0,0,0,0,0,
0,0,0,0,0,0,0,0,0,0,0,0,0,0,0,0,698,696,699,0,0,0,0,0,0,63,0,0,0,0,0,0,134,152,152,152,152,152,152,152,152,152,152,152,152,677,0,0,0,0,0,0,0,649,0,0,0,0,0,0,0,0,0,0,0,0,0,0,0,650,0,0,0,0,0,0,0,0,0,0,
0,0,0,0,0,0,0,0,0,0,0,0,0,0,0,0,0,0,0,0,0,0,0,0,0,63,0,0,0,0,0,0,0,0,0,0,0,0,0,0,0,0,0,0,0,0,0,0,0,0,0,0,0,649,0,0,0,0,0,0,0,0,0,0,0,0,0,0,0,650,0,0,0,0,0,0,0,0,0,0,
0,0,0,0,0,0,0,0,0,0,0,0,0,0,0,0,0,0,0,0,0,0,0,0,0,63,0,0,0,0,0,0,0,0,0,0,0,0,0,0,0,0,0,0,0,0,0,0,0,0,0,0,0,649,0,0,0,0,0,0,0,0,0,0,0,0,0,0,0,650,0,0,0,0,0,0,0,0,0,0,
0,0,0,0,0,0,0,0,0,0,0,0,0,0,0,0,0,0,0,0,0,0,0,0,0,63,0,0,0,0,0,0,0,0,0,0,0,0,0,0,0,0,0,0,0,0,0,0,0,0,0,0,0,649,0,0,0,0,0,0,0,0,0,0,0,0,0,0,0,650,0,0,0,0,0,0,0,0,0,0,
0,0,0,0,887,887,887,887,887,887,887,851,0,0,0,0,0,0,0,0,0,0,0,0,0,63,0,0,0,0,0,0,0,0,0,0,0,0,0,0,0,0,0,0,0,0,0,0,0,0,0,0,0,676,703,703,703,703,703,703,703,703,703,703,703,703,703,703,703,677,0,0,0,0,0,0,0,0,0,0,
0,0,0,0,0,0,0,0,0,0,0,926,0,0,0,0,0,0,0,0,0,0,0,0,0,63,0,0,0,0,0,0,0,0,0,0,0,0,0,0,0,0,0,0,0,0,0,0,0,0,0,0,0,0,0,0,0,0,0,0,0,0,0,0,0,0,0,0,0,0,0,0,0,0,0,0,0,0,0,0,
0,0,0,0,0,0,0,0,0,0,0,80,153,153,153,153,153,153,153,153,153,153,153,153,153,81,0,0,0,0,0,0,0,0,0,0,0,0,0,0,0,0,0,0,0,0,0,0,0,0,0,0,0,0,0,0,0,0,0,0,0,0,0,0,0,0,0,0,0,0,0,0,0,0,0,0,0,0,0,0
</data>
 </layer>
 <layer id="3" name="Camada de Blocos 3" width="80" height="40">
  <data encoding="csv">
0,0,0,0,0,0,0,0,0,0,0,0,0,0,0,0,0,0,0,0,0,0,0,0,0,0,0,0,0,0,0,0,0,0,0,0,0,0,0,0,0,0,0,0,0,0,0,0,0,0,0,0,0,0,0,0,0,0,0,0,0,0,0,0,0,0,0,0,0,0,0,0,0,0,0,0,0,0,0,0,
0,0,0,0,0,0,0,0,0,0,0,0,0,0,0,0,0,0,0,0,0,0,0,0,0,0,0,0,0,0,0,0,0,0,0,0,0,0,0,0,0,0,0,0,0,0,0,0,0,0,0,0,0,0,0,0,0,0,0,0,0,0,0,0,0,0,0,0,0,0,0,0,0,0,0,0,0,0,0,0,
0,0,0,0,0,0,0,0,0,0,0,0,0,0,0,0,0,0,0,0,0,0,0,0,0,0,0,0,0,0,0,0,0,0,0,0,0,0,0,0,0,0,0,0,0,0,0,0,0,0,0,0,0,0,0,0,0,0,0,0,601,0,0,602,0,0,0,0,0,0,0,0,0,0,0,0,0,0,0,0,
0,0,0,0,0,0,0,0,0,0,0,0,0,0,0,0,0,0,0,0,0,0,0,0,0,0,0,0,0,0,0,0,0,0,0,0,0,0,0,0,0,0,0,0,0,0,0,0,0,0,0,0,0,0,0,0,0,0,0,0,0,0,0,0,0,0,0,0,0,0,0,0,0,0,0,0,0,0,0,0,
0,0,0,0,0,0,0,0,0,0,0,0,0,0,0,0,0,0,0,0,0,0,0,0,0,0,0,0,0,0,0,0,0,0,0,0,0,0,0,0,0,0,0,0,0,0,0,0,0,0,0,0,0,0,0,0,0,943,0,0,0,0,0,0,0,0,943,0,0,0,0,0,0,0,0,0,0,0,0,0,
0,0,0,0,0,0,0,0,0,0,0,0,0,0,0,0,0,0,0,0,0,0,0,0,0,0,0,0,0,0,0,0,0,0,0,0,0,0,0,0,0,0,0,0,0,0,0,0,0,0,0,0,0,0,0,0,943,0,0,0,0,0,0,0,0,0,0,943,0,0,0,0,0,0,0,0,0,0,0,0,
0,0,0,0,0,0,0,0,0,0,0,0,0,0,0,0,0,0,0,0,0,0,0,0,0,0,0,0,0,0,0,0,0,0,0,0,0,0,0,0,0,0,0,0,0,0,0,0,0,0,0,0,0,0,0,943,0,0,0,0,0,0,0,0,0,0,0,0,943,0,0,0,0,0,0,0,0,0,0,0,
0,0,0,0,0,0,0,0,0,0,0,0,0,0,0,0,0,0,0,0,0,0,0,0,0,0,0,0,0,0,0,0,0,0,0,0,0,0,0,0,0,0,0,0,0,0,0,0,0,0,0,0,0,0,943,0,0,0,0,0,0,0,0,0,0,0,0,0,0,943,0,0,0,0,0,0,0,0,0,0,
0,0,0,0,0,0,0,0,0,0,0,0,0,0,0,0,0,0,0,0,0,0,0,0,0,0,0,0,0,0,0,0,0,0,0,0,0,0,0,0,0,0,0,0,0,0,0,0,0,0,0,0,0,0,0,0,0,706,0,0,0,0,0,0,0,629,0,0,0,0,0,0,0,0,0,0,0,0,0,0,
0,0,0,0,0,0,0,0,0,0,0,0,0,0,0,0,0,0,0,0,0,0,0,0,0,0,0,0,0,0,0,702,0,0,0,0,0,0,0,0,0,0,0,0,0,0,924,0,0,0,0,0,0,0,0,0,0,0,0,0,0,0,0,0,0,630,0,0,0,0,0,0,0,0,0,0,0,0,0,0,
0,0,0,0,0,0,0,0,0,0,0,0,0,0,0,0,0,0,0,0,0,0,0,0,0,0,0,0,0,0,886,678,0,0,0,0,0,0,0,0,0,0,0,0,0,0,927,924,0,0,0,0,0,0,0,0,0,0,0,0,0,0,0,0,0,0,0,0,928,0,0,0,0,0,0,0,0,0,0,0,
0,0,0,0,0,0,0,0,0,0,0,0,0,0,0,0,0,0,0,0,0,0,0,0,0,0,0,0,0,0,848,0,0,0,0,0,0,0,0,0,0,0,0,0,0,0,0,927,924,0,0,0,0,0,0,0,0,0,0,0,0,0,0,0,0,0,0,0,947,0,0,0,0,0,0,0,0,0,0,0,
0,0,0,0,0,0,0,0,0,0,0,0,0,0,0,0,0,0,0,0,0,0,0,0,0,0,0,0,0,886,678,0,0,0,0,0,0,0,0,0,0,0,0,0,0,0,0,0,945,0,0,0,0,0,0,0,0,0,0,706,0,0,0,0,0,0,0,0,0,0,0,0,0,0,0,0,0,0,0,0,
0,0,0,0,0,0,0,0,0,0,0,0,0,0,0,0,0,0,0,0,0,0,0,0,0,0,0,0,886,678,0,0,0,0,0,0,0,0,0,0,0,0,0,0,0,0,0,0,0,924,0,0,0,0,0,0,0,0,0,0,0,0,0,0,0,0,0,0,0,0,0,0,0,0,0,0,0,0,0,0,
0,0,0,0,0,0,0,0,0,0,0,0,0,0,0,0,0,0,0,0,0,0,0,0,0,0,0,886,678,0,0,0,0,0,0,0,0,0,0,0,0,0,0,0,0,0,0,0,0,0,924,0,0,0,0,0,0,0,0,0,0,0,0,0,0,0,0,0,0,0,0,0,0,0,0,0,0,0,0,0,
0,0,0,0,0,0,0,0,0,0,0,928,0,0,929,0,0,0,0,0,681,0,0,0,0,0,867,678,0,0,0,0,0,0,0,0,0,0,0,0,0,0,0,0,0,0,0,0,0,0,0,924,0,0,0,0,0,0,0,0,0,0,0,0,0,0,0,0,0,0,0,0,0,0,0,0,0,0,0,0,
0,0,0,0,0,0,0,603,629,0,0,947,0,0,948,0,0,0,0,0,708,0,0,707,0,0,0,0,0,0,0,0,0,0,0,0,0,0,0,0,0,0,0,0,0,0,0,0,0,0,0,548,0,0,0,0,0,0,0,0,0,0,0,0,0,0,0,0,0,0,0,0,0,0,0,0,0,0,0,0,
0,0,0,0,0,0,0,629,629,0,0,0,0,0,0,0,0,0,0,0,0,0,0,0,0,0,0,0,0,0,0,0,0,0,0,0,0,0,0,0,0,0,0,0,0,0,0,0,0,0,0,575,0,0,0,0,0,0,0,0,0,0,0,0,0,0,0,0,0,0,0,0,0,0,0,0,0,0,0,0,
0,0,0,0,0,0,0,629,0,0,0,0,0,0,0,0,0,0,0,0,0,0,0,0,0,0,0,0,0,0,0,0,0,0,0,652,0,0,0,0,0,0,652,0,0,0,0,0,0,0,0,927,0,0,0,0,0,0,0,0,0,0,0,0,0,0,0,0,0,0,0,0,0,0,0,0,0,0,0,0,
0,0,0,0,0,0,0,629,0,0,0,0,0,0,0,0,0,0,0,0,0,930,931,0,0,0,0,0,0,0,0,0,0,0,0,679,0,0,0,0,0,0,679,0,0,0,0,0,0,0,0,0,0,0,0,0,0,0,0,0,0,0,0,0,0,0,0,0,0,0,0,0,0,0,0,0,0,0,0,0,
0,0,0,0,926,0,0,629,0,0,0,0,0,0,0,0,0,0,0,0,0,0,0,0,0,0,0,0,0,0,0,0,0,0,0,706,0,0,0,0,0,0,706,0,0,0,0,0,0,0,0,0,0,0,0,0,0,0,0,0,0,0,0,0,0,0,0,0,0,0,0,0,0,0,0,0,0,0,0,0,
0,0,0,0,926,0,0,630,0,0,0,0,0,0,0,0,0,0,0,0,0,0,0,0,0,0,0,0,0,0,0,0,0,0,0,0,0,177,178,179,180,0,0,0,0,0,0,0,0,0,0,0,0,0,0,0,0,0,0,0,0,0,0,0,0,0,0,0,0,0,0,0,0,0,0,0,0,0,0,0,
0,0,0,0,549,0,0,0,0,0,0,0,0,0,0,0,0,0,0,0,0,0,0,0,0,0,0,0,0,0,0,0,0,0,0,0,0,195,196,197,198,0,0,0,0,0,0,0,0,0,0,0,0,0,0,0,0,0,0,0,0,0,0,0,0,0,0,0,0,0,0,0,0,0,0,0,0,0,0,0,
0,0,0,0,576,0,0,0,0,0,0,0,0,0,0,0,0,0,0,0,0,0,0,0,0,0,0,0,0,0,0,0,0,0,0,0,0,213,214,215,216,0,0,0,0,0,0,0,0,0,0,0,0,0,0,0,0,0,0,0,0,0,0,0,0,0,0,0,0,0,0,0,0,0,0,0,0,0,0,0,
0,0,0,0,926,0,0,0,0,0,0,0,0,0,0,0,0,0,0,0,0,0,0,0,0,0,0,0,0,0,0,0,0,0,0,0,0,231,232,233,234,0,0,0,0,0,0,0,0,0,0,0,0,0,0,0,0,0,0,0,0,0,0,0,0,0,0,0,0,0,0,0,0,0,0,0,0,0,0,0,
0,0,0,0,926,0,0,0,0,0,0,0,0,0,0,0,0,0,0,0,0,0,0,0,0,0,0,0,0,0,0,0,0,0,0,0,0,0,0,0,0,0,0,0,0,0,0,0,0,0,0,548,0,0,0,0,0,0,0,0,0,0,0,0,0,0,0,0,0,0,0,0,0,0,0,0,0,0,0,0,
0,0,0,0,926,0,0,0,0,0,0,0,0,0,0,0,0,0,0,0,0,0,0,0,0,0,0,0,0,0,0,0,0,0,0,0,0,0,0,0,0,0,0,0,0,0,0,0,0,0,0,575,0,0,0,0,0,0,0,0,0,0,0,0,0,0,0,0,0,0,0,0,0,0,0,0,0,0,0,0,
0,0,0,0,926,0,0,0,0,0,0,0,0,0,0,0,0,0,0,0,0,0,0,0,0,0,0,0,0,0,0,0,0,0,0,0,0,0,0,0,0,0,0,0,0,0,0,0,0,0,0,0,0,0,0,0,0,0,0,0,0,0,0,0,0,0,0,0,0,0,0,0,0,0,0,0,0,0,0,0,
0,0,0,0,549,0,0,0,0,0,0,0,0,0,0,0,0,0,0,0,0,0,0,0,0,548,0,0,0,0,0,0,0,0,0,652,0,0,0,0,0,0,652,0,0,0,0,0,0,0,0,0,0,0,0,0,0,0,0,0,0,0,0,0,0,0,0,0,0,0,0,0,0,0,0,0,0,0,0,0,
0,0,0,0,576,0,0,0,0,0,0,0,0,0,0,0,0,0,0,0,0,0,0,0,0,575,0,0,0,0,0,0,0,0,0,0,0,0,0,0,0,0,0,0,0,0,0,0,0,0,0,0,0,0,0,0,0,0,0,0,0,0,0,0,0,0,0,0,0,0,0,0,0,0,0,0,0,0,0,0,
0,0,0,0,926,0,0,0,0,0,0,0,0,0,0,0,0,0,0,0,0,0,0,0,0,0,0,0,0,0,0,0,0,0,0,0,0,0,0,0,0,0,0,0,0,0,0,0,0,0,0,0,0,0,0,0,0,0,0,0,0,0,0,0,0,0,0,0,0,0,0,0,0,0,0,0,0,0,0,0,
0,0,0,0,926,0,0,0,0,0,0,0,0,0,0,0,0,0,0,0,0,0,0,0,0,0,0,0,0,0,0,0,0,0,0,0,0,0,0,0,0,0,0,0,0,0,0,0,0,0,0,0,0,0,0,0,0,0,0,0,0,0,0,0,0,0,0,0,0,0,0,0,0,0,0,0,0,0,0,0,
0,0,0,0,926,0,0,0,0,0,0,0,0,0,0,0,0,0,0,0,0,0,0,0,0,0,0,0,0,0,0,0,0,0,0,0,0,0,0,0,0,0,0,0,0,0,0,0,0,0,0,0,0,0,0,0,0,0,0,0,0,0,0,0,0,0,0,0,0,0,0,0,0,0,0,0,0,0,0,0,
0,0,0,0,549,0,0,0,0,0,0,0,0,0,0,0,0,0,0,0,0,0,0,0,0,548,0,0,0,0,0,0,0,0,0,0,0,0,0,0,0,0,0,0,0,0,0,0,0,0,0,0,0,0,0,0,0,0,0,0,0,0,0,0,0,0,0,0,0,0,0,0,0,0,0,0,0,0,0,0,
0,0,0,0,576,0,0,0,0,0,0,0,0,0,0,0,0,0,0,0,0,0,0,0,0,575,0,0,0,0,0,0,0,0,0,0,0,0,0,0,0,0,0,0,0,0,0,0,0,0,0,0,0,0,0,0,0,0,0,0,0,0,0,0,0,0,0,0,0,0,0,0,0,0,0,0,0,0,0,0,
0,0,0,0,926,0,0,0,0,0,0,0,0,0,0,0,0,0,0,0,0,0,0,0,0,0,0,0,0,0,0,0,0,0,0,0,0,0,0,0,0,0,0,0,0,0,0,0,0,0,0,0,0,0,0,0,0,0,0,0,0,0,0,0,0,0,0,0,0,0,0,0,0,0,0,0,0,0,0,0,
0,0,0,0,926,0,0,0,0,0,0,0,0,0,0,0,0,0,0,0,0,0,0,0,0,0,0,0,0,0,0,0,0,0,0,0,0,0,0,0,0,0,0,0,0,0,0,0,0,0,0,0,0,0,0,0,0,0,0,0,0,0,0,0,0,0,0,0,0,0,0,0,0,0,0,0,0,0,0,0,
0,0,0,0,676,0,0,0,0,0,0,0,0,0,0,0,0,0,0,0,0,0,0,0,0,0,0,0,0,0,0,0,0,0,0,0,0,0,0,0,0,0,0,0,0,0,0,0,0,0,0,0,0,0,0,0,0,0,0,0,0,0,0,0,0,0,0,0,0,0,0,0,0,0,0,0,0,0,0,0,
0,0,0,0,0,0,0,0,0,0,0,0,0,0,0,0,0,0,0,0,0,0,0,0,0,0,0,0,0,0,0,0,0,0,0,0,0,0,0,0,0,0,0,0,0,0,0,0,0,0,0,0,0,0,0,0,0,0,0,0,0,0,0,0,0,0,0,0,0,0,0,0,0,0,0,0,0,0,0,0,
0,0,0,0,0,0,0,0,0,0,0,0,0,0,0,0,0,0,0,0,0,0,0,0,0,0,0,0,0,0,0,0,0,0,0,0,0,0,0,0,0,0,0,0,0,0,0,0,0,0,0,0,0,0,0,0,0,0,0,0,0,0,0,0,0,0,0,0,0,0,0,0,0,0,0,0,0,0,0,0
</data>
 </layer>
</map>
